X: 41288
T: Tumble The Tinker
R: jig
M: 6/8
K: Gmajor
A|:B/c/dB G2G|GBd gdc|B/c/dB GED|E2A ABc|
BAB G2G|GBd ~g3|agf gdB|A2G ABc:|
|:ded dcB|def gdB|ded dcB|A2G ABc|
[1 ded dcB|def ~g3|agf gdB|A2G ABc:|
[2 ded BGB|def ~g3|agf gdB|A2G ABc||

